X:910
T:Caerdroea
% Nottingham Music Database
T:Tune
P:AAB
S:JP/AF 85
M:3/4
L:1/4
K:D
P:A
d|"D"AA/2B/2 A/2G/2|"D"FAD|"Em"GG/2A/2 G/2F/2|"A7"E2d|"D"AA/2B/2 A/2G/2|"D"FAD|\
"G"GF"A7"E|"D"D2:|
P:B
D|"Bm"F3/2E/2 F/2G/2|"F#m"A3/2A/2A|"Bm"F3/2E/2 F/2G/2|"F#m"A2A|\
"Bm"d3/2c/2 d/2e/2|"A"c3/2B/2A|"D"dd/2f/2 "A"e/2g/2|"D"f2"A/c#"e|
"Bm"d3/2c/2 B/2d/2|"F#m"c3/2B/2A|"Bm"dF"E7"^G|"A7"A2d|\
"D"AA/2B/2 A/2G/2|"D"FAD|"G"GF"A7"E|"D"D2|]
T:Harmony
P:A
A|"D"d d/c/ d/e/|f e d|"Em"B B/A/ B/d/|"A7"c2 A|\
"D"d d/c/ d/e/|f e d|"G"B B/d/ "A7"c/A/|"D"d2:|
P:B
d|"Bm"B B/A d/B|"F#m"c f>f|"Bm"B B/A d/B|"F#m"f2 e|\
"Bm"d d/e/ f/d/|"A"e a>g|"D"f f/a/ "A"g/b/|"D"a2 "A/c#"f/a/|
"Bm"b>a g/f/|"F#m"f d e|"Bm"f>e "E7"d/f/|"A7"e2 d/c/|\
"D"d d/A/ d/e/|"D"f e d|"G" B B/d/ "A7"c/A/|d2|]

%%newpage
%%textfont * 20
%%text W2 (2.0) p2
%%textfont * 12

